src/images/stack-ios.svg

<svg xmlns="http://www.w3.org/2000/svg" width="179" height="179" fill="none" viewBox="0 0 179 179"><rect width="179" height="179" fill="#fff"/><path fill="#454545" fill-rule="evenodd" d="M131 70.0701C133 67.7901 124.49 57.8101 114.78 56.3001C105.07 54.7901 92.18 64.0001 92.18 64.0001C92.18 64.0001 80.49 55.4801 70.74 56.2401C60.99 57.0001 53.2 67.0201 53.2 67.0201C53.2 67.0201 42.95 81.2701 49.2 106.15C53.62 123.64 62.88 132.55 70.76 136.98C78.42 141.28 88.25 133.52 92.24 134.28C95.75 134.94 98.67 140.41 110.38 138.81C115.13 138.17 128.95 133.63 135.21 112.36C135.91 110 121.69 103.94 120.64 93.3601C119.59 82.7801 130.39 70.8301 131 70.0701Z" clip-rule="evenodd"/><path fill="#454545" fill-rule="evenodd" d="M90.64 59.12C90.64 59.12 85.8899 51.95 95.4799 42.53C105.69 32.53 111.91 33.71 111.91 33.71C111.91 33.71 114.61 41.25 105.91 50.31C94.5299 62.24 90.64 59.12 90.64 59.12Z" clip-rule="evenodd"/></svg>

<svg fill="none" viewBox="0 0 179 179"><path fill="#fff" d="M0 0h179v179H0z"/><path fill="#454545" fill-rule="evenodd" d="M131 70.07c2-2.28-6.51-12.26-16.22-13.77-9.71-1.51-22.6 7.7-22.6 7.7s-11.69-8.52-21.44-7.76C60.99 57 53.2 67.02 53.2 67.02s-10.25 14.25-4 39.13c4.42 17.49 13.68 26.4 21.56 30.83 7.66 4.3 17.49-3.46 21.48-2.7 3.51.66 6.43 6.13 18.14 4.53 4.75-.64 18.57-5.18 24.83-26.45.7-2.36-13.52-8.42-14.57-19-1.05-10.58 9.75-22.53 10.36-23.29z" clip-rule="evenodd"/><path fill="#454545" fill-rule="evenodd" d="M90.64 59.12s-4.75-7.17 4.84-16.59c10.21-10 16.43-8.82 16.43-8.82s2.7 7.54-6 16.6c-11.38 11.93-15.27 8.81-15.27 8.81z" clip-rule="evenodd"/></svg>
